Adwaita++/status/16/bluetooth-disabled.svg

<svg height="16" width="16" xmlns="http://www.w3.org/2000/svg">
  <g fill="#474747">
    <path d="m6 0v3.523l2 2v-2.109l1.586 1.586-1.056 1.055 1.414 1.414 1.762-1.762a1 1 0 0 0 0-1.414l-4-4a1 1 0 0 0 -.706-.293h-.016zm0 8.473v.113l-2.707 2.707a.996.996 0 0 0 -.293.707v1h1a.996.996 0 0 0 .707-.293l1.293-1.293v4.586h1a1 1 0 0 0 .707-.293l2.764-2.764-1.414-1.414-1.057 1.057v-2.113z" opacity=".35"/>
    <path d="m1.531.469-1.061 1.061 14 14 1.062-1.062z"/>
  </g>
</svg>

<svg xmlns="http://www.w3.org/2000/svg" width="16" height="16">
    <g fill="#474747">
        <path d="M6 0v3.523l2 2V3.414L9.586 5 8.53 6.055l1.414 1.414 1.762-1.762a1 1 0 0 0 0-1.414l-4-4A1 1 0 0 0 7 0h-.016zm0 8.473v.113l-2.707 2.707A.996.996 0 0 0 3 12v1h1a.996.996 0 0 0 .707-.293L6 11.414V16h1a1 1 0 0 0 .707-.293l2.764-2.764-1.414-1.414L8 12.586v-2.113z" style="line-height:normal;font-variant-ligatures:normal;font-variant-position:normal;font-variant-caps:normal;font-variant-numeric:normal;font-variant-alternates:normal;font-feature-settings:normal;text-indent:0;text-align:start;text-decoration-line:none;text-decoration-style:solid;text-decoration-color:#000;text-transform:none;text-orientation:mixed;shape-padding:0;isolation:auto;mix-blend-mode:normal" color="#000" font-weight="400" font-family="sans-serif" white-space="normal" overflow="visible" opacity=".35"/>
        <path d="M1.531.469L.47 1.53l14 14 1.062-1.062z"/>
    </g>
</svg>
